design/Devices/air_filter.svg

<svg width="24" height="24" viewBox="0 0 24 24" xmlns="http://www.w3.org/2000/svg">
<path d="M7 7.80683C6.47313 7.67975 5.94605 7.50138 5.39532 7.30701C5.3248 7.28212 5.25341 7.25675 5.18118 7.23108C4.22537 6.89139 3.12411 6.5 2 6.5V8.5C2.76746 8.5 3.56036 8.78003 4.63139 9.15829L4.72968 9.19299C5.40365 9.43086 6.16433 9.69311 7 9.85218V7.80683Z"/>
<path d="M7 11.8068C6.47313 11.6797 5.94605 11.5014 5.39532 11.307C5.3248 11.2821 5.2534 11.2567 5.18116 11.2311C4.22536 10.8914 3.12411 10.5 2 10.5V12.5C2.76746 12.5 3.56036 12.78 4.63139 13.1583L4.72968 13.193C5.40365 13.4309 6.16433 13.6931 7 13.8522V11.8068Z"/>
<path d="M9 13.9777V11.9662C9.76741 11.8621 10.459 11.5275 11.3028 11.1056L11.3632 11.0753C12.3297 10.5918 13.5124 10 15 10C16.4639 10 17.7568 10.575 18.8333 11.0538L18.9061 11.0862C20.0652 11.6013 20.9971 12 22 12V14C20.5361 14 19.2432 13.425 18.1667 12.9462L18.0939 12.9138C16.9348 12.3987 16.0029 12 15 12C14.0187 12 13.2197 12.3832 12.1972 12.8944L12.1368 12.9247C11.2812 13.3527 10.2561 13.8657 9 13.9777Z"/>
<path d="M7 15.8068C6.47313 15.6797 5.94605 15.5014 5.39532 15.307C5.32464 15.2821 5.25308 15.2566 5.18068 15.2309C4.22488 14.8912 3.12411 14.5 2 14.5V16.5C2.76746 16.5 3.56036 16.78 4.63139 17.1583L4.72968 17.193C5.40365 17.4309 6.16433 17.6931 7 17.8522V15.8068Z"/>
<path d="M9 17.9777V15.9662C9.76741 15.8621 10.459 15.5275 11.3028 15.1056L11.3632 15.0753C12.3297 14.5918 13.5124 14 15 14C16.4639 14 17.7568 14.575 18.8333 15.0538L18.9061 15.0862C20.0652 15.6013 20.9971 16 22 16V18C20.5361 18 19.2432 17.425 18.1667 16.9462L18.0939 16.9138C16.9348 16.3987 16.0029 16 15 16C14.0187 16 13.2197 16.3832 12.1972 16.8944L12.1368 16.9247C11.2812 17.3527 10.2561 17.8657 9 17.9777Z"/>
<path d="M9 9.9777V7.96625C9.76741 7.86214 10.459 7.52747 11.3028 7.10557L11.3632 7.07535C12.3297 6.59179 13.5124 6 15 6C16.4639 6 17.7568 6.57501 18.8333 7.05382L18.9061 7.08619C20.0652 7.60134 20.9971 8 22 8V10C20.5361 10 19.2432 9.42499 18.1667 8.94618L18.0939 8.91381C16.9348 8.39866 16.0029 8 15 8C14.0187 8 13.2197 8.38317 12.1972 8.89443L12.1368 8.92465C11.2812 9.35274 10.2561 9.86566 9 9.9777Z"/>
<path d="M7 4H17V7C17 7 18.4444 7.7529 19 8V4C19 2.89543 18.1046 2 17 2H7C5.89543 2 5 2.89543 5 4V20C5 21.1046 5.89543 22 7 22H17C18.1046 22 19 21.1046 19 20V19.3071C18.7096 19.1876 18.4316 19.064 18.1667 18.9462L18.0939 18.9138C17.7077 18.7422 17.3468 18.5835 17 18.4481V20H7V4Z"/>
</svg>

<svg xmlns="http://www.w3.org/2000/svg" width="24" height="24" viewBox="0 0 24 24"><path d="M18.91,11.09A7.84,7.84,0,0,0,22,12v2A9.37,9.37,0,0,1,18.17,13l-.08,0A7.84,7.84,0,0,0,15,12a6.15,6.15,0,0,0-2.8.89l-.06,0A8.54,8.54,0,0,1,9,14V12a7.59,7.59,0,0,0,2.3-.86l.06,0A7.86,7.86,0,0,1,15,10a9.37,9.37,0,0,1,3.83,1.05Zm-.08,4A9.37,9.37,0,0,0,15,14a7.86,7.86,0,0,0-3.64,1.08l-.06,0A7.59,7.59,0,0,1,9,16v2a8.54,8.54,0,0,0,3.14-1.06l.06,0A6.15,6.15,0,0,1,15,16a7.84,7.84,0,0,1,3.09.91l.08,0A9.53,9.53,0,0,0,22,18V16a7.84,7.84,0,0,1-3.09-.91ZM19,7.13V4a2,2,0,0,0-2-2H7A2,2,0,0,0,5,4V7.17A9,9,0,0,0,2,6.5v2a8.26,8.26,0,0,1,2.63.66l.1,0L5,9.28v1.89a9,9,0,0,0-3-.67v2a8.26,8.26,0,0,1,2.63.66l.1,0,.27.09v1.89a9,9,0,0,0-3-.67v2a8.26,8.26,0,0,1,2.63.66l.1,0,.27.09V20a2,2,0,0,0,2,2H17a2,2,0,0,0,2-2v-.69L18.17,19l-.08,0c-.38-.17-.74-.33-1.09-.46V20H7V4H17V6.33A6.81,6.81,0,0,0,15,6a7.86,7.86,0,0,0-3.64,1.08l-.06,0A7.59,7.59,0,0,1,9,8v2a8.54,8.54,0,0,0,3.14-1.06l.06,0A6.15,6.15,0,0,1,15,8a7.84,7.84,0,0,1,3.09.91l.08,0A9.53,9.53,0,0,0,22,10V8A7.63,7.63,0,0,1,19,7.13Z"/><rect width="24" height="24" fill="none"/></svg>
